brandFactory_export/2.Regular/Multicontenido_2Regular.svg

<?xml version="1.0" encoding="UTF-8"?>
<svg width="24px" height="24px" viewBox="0 0 24 24" version="1.1" xmlns="http://www.w3.org/2000/svg" xmlns:xlink="http://www.w3.org/1999/xlink">
    <title>2.Regular/Multicontenido_2Regular</title>
    <g id="Symbols" stroke="none" stroke-width="1" fill="none" fill-rule="evenodd">
        <g id="2.Regular/Multicontenido_2Regular" fill="#5CB615" fill-rule="nonzero">
            <path d="M12.8168067,18.7478992 C13.1865546,18.7478992 13.4890756,19.0504202 13.4890756,19.4201681 C13.4890756,19.789916 13.189916,20.092437 12.8168067,20.092437 L6.91764706,20.092437 C6.54789916,20.092437 6.24537815,19.789916 6.24537815,19.4201681 C6.24537815,19.0504202 6.54789916,18.7478992 6.91764706,18.7478992 L12.8168067,18.7478992 Z M16.0840336,3 C17.4016807,3 18.4134454,3.39327731 19.0890756,4.16302521 C19.7176471,4.88235294 20.0336134,5.92436975 20.0336134,7.26218487 L20.0328908,7.272 L21.1394958,7.27226891 C22.7831933,7.27226891 23.6537815,8.14285714 23.6537815,9.78655462 L23.6537815,17.5747899 C23.6504202,19.2184874 22.7831933,20.0890756 21.1361345,20.0890756 L17.6134454,20.0890756 C15.9697479,20.0890756 15.0991597,19.2184874 15.0991597,17.5747899 L15.0988908,17.45 L3.97647059,17.4504202 C2.65882353,17.4504202 1.64705882,17.0571429 0.971428571,16.287395 C0.342857143,15.5680672 0.026890756,14.5260504 0.026890756,13.1882353 L0.026890756,7.26218487 C0.026890756,5.92436975 0.346218487,4.88235294 0.971428571,4.16302521 C1.64705882,3.38991597 2.65546218,3 3.97647059,3 L16.0840336,3 Z M17.6134454,8.61344538 C16.7394958,8.61344538 16.4436975,8.9092437 16.4436975,9.78319328 L16.4436975,17.5714286 C16.4436975,18.0218487 16.5277311,18.3344538 16.692437,18.4991597 C16.8571429,18.6605042 17.1663866,18.7445378 17.6168067,18.7445378 L21.1428571,18.7445378 C21.5932773,18.7445378 21.902521,18.6638655 22.0672269,18.4991597 C22.2319328,18.3378151 22.3159664,18.0252101 22.3159664,17.5714286 L22.3159664,9.78655462 C22.3159664,8.88907563 22.0436975,8.61680672 21.1462185,8.61680672 L17.6134454,8.61680672 L17.6134454,8.61344538 Z M19.3747899,16.1294118 C19.9193277,16.1294118 20.2722689,16.4823529 20.2722689,17.0302521 C20.2722689,17.3663866 20.1445378,17.5680672 20.0336134,17.6789916 C19.9226891,17.789916 19.7176471,17.9277311 19.3747899,17.9277311 C19.0319328,17.9277311 18.8268908,17.7932773 18.7159664,17.6789916 C18.6084034,17.5680672 18.4773109,17.3663866 18.4773109,17.0302521 C18.4773109,16.4823529 18.8302521,16.1294118 19.3747899,16.1294118 Z M16.0840336,4.34117647 L3.97647059,4.34117647 C3.05210084,4.34117647 2.4,4.57310924 1.98655462,5.04705882 C1.57983193,5.51428571 1.37142857,6.2605042 1.37142857,7.26218487 L1.37142857,13.1882353 C1.37142857,14.189916 1.57647059,14.9361345 1.98655462,15.4033613 C2.4,15.8773109 3.05210084,16.1092437 3.97647059,16.1092437 L15.0988908,16.109 L15.0991597,9.78655462 C15.0991597,8.16638655 15.9932773,7.27226891 17.6134454,7.27226891 L18.6888908,7.272 L18.6890756,7.26218487 C18.6890756,6.2605042 18.4840336,5.51428571 18.0739496,5.04705882 C17.6605042,4.57310924 17.0084034,4.34117647 16.0840336,4.34117647 Z" id="Multicontenido_2Regular"></path>
        </g>
    </g>
</svg>

<svg width="24" height="24" viewBox="0 0 24 24" xmlns="http://www.w3.org/2000/svg"><path d="M12.817 18.748a.672.672 0 110 1.345h-5.9a.674.674 0 01-.672-.673c0-.37.303-.672.673-.672h5.899zM16.084 3c1.318 0 2.33.393 3.005 1.163.629.72.945 1.761.945 3.1l-.001.009h1.106c1.644 0 2.515.87 2.515 2.515v7.788c-.004 1.643-.87 2.514-2.518 2.514h-3.523c-1.643 0-2.514-.87-2.514-2.514v-.125H3.976c-1.317 0-2.329-.393-3.005-1.163-.628-.719-.944-1.76-.944-3.099V7.262c0-1.338.32-2.38.944-3.099C1.647 3.39 2.655 3 3.976 3h12.108zm1.53 5.613c-.875 0-1.17.296-1.17 1.17v7.788c0 .45.084.763.248.928.165.162.474.246.925.246h3.526c.45 0 .76-.081.924-.246.165-.161.249-.474.249-.928V9.787c0-.898-.272-1.17-1.17-1.17h-3.533v-.004zm1.76 7.516c.545 0 .898.353.898.901 0 .336-.127.538-.238.649-.111.11-.316.249-.66.249-.342 0-.547-.135-.658-.249-.108-.11-.239-.313-.239-.649 0-.548.353-.9.898-.9zm-3.29-11.788H3.976c-.924 0-1.576.232-1.99.706-.406.467-.615 1.214-.615 2.215v5.926c0 1.002.205 1.748.616 2.215.413.474 1.065.706 1.99.706h11.122V9.787c0-1.62.894-2.515 2.514-2.515h1.076v-.01c0-1.001-.205-1.748-.615-2.215-.413-.474-1.066-.706-1.99-.706z" fill="#5CB615" fill-rule="nonzero"/></svg>
